svgs/thin/ranking-star.svg

<svg xmlns="http://www.w3.org/2000/svg" viewBox="0 0 640 512"><!--! Font Awesome Pro 6.1.1 by @fontawesome - https://fontawesome.com License - https://fontawesome.com/license (Commercial License) Copyright 2022 Fonticons, Inc. --><path d="M302.6 10.76C309.9-3.853 330.6-3.342 337.4 10.83L359.1 54.79L407.3 61.75C423 64.17 429.7 83.54 418.2 95.06L418.1 95.17L383.2 128.9L391.5 176.9C393.9 192.6 377.6 204.8 363.1 197.5L363 197.4L320.2 174.1L276.9 197.9C262.4 205.1 246.1 192.1 248.5 177.3L248.5 177.1L256.8 129.2L221.8 95.06C210.3 83.54 216.1 64.17 232.7 61.75L232.7 61.74L280.9 54.79L302.6 10.76zM291.5 69.43L235.1 77.57C232.2 78.04 230.1 81.61 233.1 83.74L273.1 123.6L264.3 179.8C263.9 182.7 266.9 184.9 269.6 183.6L320.2 156.9L370.4 183.2C373.1 184.5 376.1 182.4 375.7 179.4L366 123.2L406.9 83.73C409 81.6 407.8 78.03 404.9 77.57L348.5 69.43L323 17.88L322.1 17.78C321.9 15.48 318.3 15.3 316.1 17.89L291.5 69.43zM224 304C224 277.5 245.5 256 272 256H368C394.5 256 416 277.5 416 304V464C416 490.5 394.5 512 368 512H272C245.5 512 224 490.5 224 464V304zM240 304V464C240 481.7 254.3 496 272 496H368C385.7 496 400 481.7 400 464V304C400 286.3 385.7 272 368 272H272C254.3 272 240 286.3 240 304zM0 368C0 341.5 21.49 320 48 320H144C170.5 320 192 341.5 192 368V464C192 490.5 170.5 512 144 512H48C21.49 512 0 490.5 0 464V368zM16 368V464C16 481.7 30.33 496 48 496H144C161.7 496 176 481.7 176 464V368C176 350.3 161.7 336 144 336H48C30.33 336 16 350.3 16 368zM592 384C618.5 384 640 405.5 640 432V464C640 490.5 618.5 512 592 512H496C469.5 512 448 490.5 448 464V432C448 405.5 469.5 384 496 384H592zM592 400H496C478.3 400 464 414.3 464 432V464C464 481.7 478.3 496 496 496H592C609.7 496 624 481.7 624 464V432C624 414.3 609.7 400 592 400z"/></svg>

<svg xmlns="http://www.w3.org/2000/svg" viewBox="0 0 640 512"><!--! Font Awesome Pro 6.4.2 by @fontawesome - https://fontawesome.com License - https://fontawesome.com/license (Commercial License) Copyright 2023 Fonticons, Inc. --><path d="M317 17.9L293.3 65.7l-1.9 3.8-4.2 .6-52.2 7.5c-2.9 .5-4.1 4-2 6.2l37.9 37 3 2.9-.7 4.1-8.9 52c-.4 2.9 2.6 5.1 5.3 3.8l46.8-24.7 3.7-2 3.7 2 46.5 24.4c2.7 1.3 5.7-.9 5.3-3.8l-8.9-52-.7-4.2 3-2.9 37.9-36.6c2.1-2.1 .9-5.7-2-6.2L352.7 70l-4.2-.6-1.9-3.8L323 17.9l-.1-.1 0 0c-1.1-2.3-4.7-2.5-6 .1l0 0zm-14.3-7.1c7.3-14.6 28-14.1 34.8 .1l21.8 44 48.1 6.9 .1 0 0 0c15.7 2.4 22.4 21.8 10.9 33.3l-.1 .1 0 0-34.9 33.7 8.2 47.9 0 .1 0 0c2.4 15.7-13.9 27.8-28.3 20.6l-.1-.1 0 0L320.2 175 277 197.8l-.2 .1 0 0c-14.5 7.3-30.7-4.9-28.3-20.6l0-.1 0 0 8.2-47.9L221.8 95.1l-.1-.1 0 0c-11.5-11.5-4.8-30.9 10.9-33.3l.1 0 0 0 48.1-6.9 21.8-44 0 0zM272 272c-17.7 0-32 14.3-32 32V464c0 17.7 14.3 32 32 32h96c17.7 0 32-14.3 32-32V304c0-17.7-14.3-32-32-32H272zm-48 32c0-26.5 21.5-48 48-48h96c26.5 0 48 21.5 48 48V464c0 26.5-21.5 48-48 48H272c-26.5 0-48-21.5-48-48V304zM48 336c-17.7 0-32 14.3-32 32v96c0 17.7 14.3 32 32 32h96c17.7 0 32-14.3 32-32V368c0-17.7-14.3-32-32-32H48zM0 368c0-26.5 21.5-48 48-48h96c26.5 0 48 21.5 48 48v96c0 26.5-21.5 48-48 48H48c-26.5 0-48-21.5-48-48V368zm592 32H496c-17.7 0-32 14.3-32 32v32c0 17.7 14.3 32 32 32h96c17.7 0 32-14.3 32-32V432c0-17.7-14.3-32-32-32zm-96-16h96c26.5 0 48 21.5 48 48v32c0 26.5-21.5 48-48 48H496c-26.5 0-48-21.5-48-48V432c0-26.5 21.5-48 48-48z"/></svg>
